X: 16003
T: Great Denmark Street
R: waltz
M: 3/4
K: Eminor
[L: 1/4]
ef|:"*"g>fe|fdB|A3/2B//c// d|JBA^G|E=GG|A3|Bef|gJbg|
a>ga|efg|fdB|cBA|GEG|BGB|efg|f3|
Jg2a|fdB|A3/2B//c// d|JBA^G|E=GG|^GAA|BeB|gbg|
gaa|efg|fz B|cBA|GEG|BGB|efg|fga||
Jb3|fge|d2e|d>BA|B2e|d>BA|BGe|d>ef|
g>ab|abc'|bee|fdB|A3/2B//c// d|Bdg|efg|fga|
Jbab|fge|d2e|d>BA|B2e|d>BA|BGe|d>ef|
g>aa/g/|abc'|bee|fdB|A3/2B//c// d|Bdg|efg|"**"f3:|
"*after repeats "g3||"**on second repeat" fga||
"ending (after three runs through both parts)" g3|fdB|A3/2B//c// d|JBA^G|(E3|E3)||

